svgs/solid/draw-polygon.svg

<svg xmlns="http://www.w3.org/2000/svg" viewBox="0 0 448 512"><!-- Font Awesome Pro 6.0.0-alpha2 by @fontawesome - https://fontawesome.com License - https://fontawesome.com/license (Commercial License) --><path d="M384 352C383.625 352 383.375 352.125 383 352.125L343.75 286.75C348.875 277.625 352 267.25 352 256C352 244.75 348.875 234.375 343.75 225.25L383 159.875C383.375 159.875 383.625 160 384 160C419.375 160 448 131.375 448 96S419.375 32 384 32C360.375 32 340 45 328.875 64H119.125C108 45 87.625 32 64 32C28.625 32 0 60.625 0 96C0 119.625 13 140 32 151.125V360.875C13 372 0 392.375 0 416C0 451.375 28.625 480 64 480C87.625 480 108 467 119.125 448H328.875C340 467 360.375 480 384 480C419.375 480 448 451.375 448 416S419.375 352 384 352ZM96 360.875V151.125C105.625 145.5 113.5 137.625 119.125 128H327.5L289 192.125C288.625 192.125 288.375 192 288 192C252.625 192 224 220.625 224 256S252.625 320 288 320C288.375 320 288.625 319.875 289 319.875L327.5 384H119.125C113.5 374.375 105.625 366.5 96 360.875ZM272 256C272 247.125 279.125 240 288 240S304 247.125 304 256C304 264.875 296.875 272 288 272S272 264.875 272 256ZM400 96C400 104.875 392.875 112 384 112S368 104.875 368 96S375.125 80 384 80S400 87.125 400 96ZM64 80C72.875 80 80 87.125 80 96S72.875 112 64 112S48 104.875 48 96S55.125 80 64 80ZM48 416C48 407.125 55.125 400 64 400S80 407.125 80 416S72.875 432 64 432S48 424.875 48 416ZM384 432C375.125 432 368 424.875 368 416S375.125 400 384 400S400 407.125 400 416S392.875 432 384 432Z"/></svg>

<svg xmlns="http://www.w3.org/2000/svg" viewBox="0 0 448 512"><!-- Font Awesome Pro 5.15.1 by @fontawesome - https://fontawesome.com License - https://fontawesome.com/license (Commercial License) --><path d="M384 352c-.35 0-.67.1-1.02.1l-39.2-65.32c5.07-9.17 8.22-19.56 8.22-30.78s-3.14-21.61-8.22-30.78l39.2-65.32c.35.01.67.1 1.02.1 35.35 0 64-28.65 64-64s-28.65-64-64-64c-23.63 0-44.04 12.95-55.12 32H119.12C108.04 44.95 87.63 32 64 32 28.65 32 0 60.65 0 96c0 23.63 12.95 44.04 32 55.12v209.75C12.95 371.96 0 392.37 0 416c0 35.35 28.65 64 64 64 23.63 0 44.04-12.95 55.12-32h209.75c11.09 19.05 31.49 32 55.12 32 35.35 0 64-28.65 64-64 .01-35.35-28.64-64-63.99-64zm-288 8.88V151.12A63.825 63.825 0 0 0 119.12 128h208.36l-38.46 64.1c-.35-.01-.67-.1-1.02-.1-35.35 0-64 28.65-64 64s28.65 64 64 64c.35 0 .67-.1 1.02-.1l38.46 64.1H119.12A63.748 63.748 0 0 0 96 360.88zM272 256c0-8.82 7.18-16 16-16s16 7.18 16 16-7.18 16-16 16-16-7.18-16-16zM400 96c0 8.82-7.18 16-16 16s-16-7.18-16-16 7.18-16 16-16 16 7.18 16 16zM64 80c8.82 0 16 7.18 16 16s-7.18 16-16 16-16-7.18-16-16 7.18-16 16-16zM48 416c0-8.82 7.18-16 16-16s16 7.18 16 16-7.18 16-16 16-16-7.18-16-16zm336 16c-8.82 0-16-7.18-16-16s7.18-16 16-16 16 7.18 16 16-7.18 16-16 16z"/></svg>
